X: 1607
T: Joe's Reel
B: australian traditional tunes wiki
M:4/4
L:1/8
R: Reel
Q: 1/4=100
K:C
V:1 
|:"C"E2CD EF GE|"F"FE FG ABc2|"C"E2CD EF GE|"G7"DE DC B,A,G,2|"C"E2CD EF GE|"F"FE FG AB cd|"C"e2ec "G7"d2gf|"C"ed cBc2-c2:|
"G"d2Bcd2g2"C"|e2cd e^fg2|"G"d2Bcd2g2|"Dm7"de dc "G"BA GF|"C"E2CD EF GE|"F"FE FG ABc2|"C"e2ec"G7"d2gf|"C"ed cBc4|
"G"d2Bcd2g2|"C"e2cd "G"e^fg2|"A7"a2ab ag ^fe|"Dm"fe dc "G7"BA GF|"C"E2CD EF GE|"F"FE FG ABc2|"C"e2ec "G7"d2gf"C"|ed cBc4|
% abcbook-tune_id 6342d53ac5786999fb97023a


% abcbook-boost 0
% abcbook-tablature 
% abcbook-transpose 
% abcbook-lastupdated 1665324373704
% abcbook-soundfonts 
% abcbook-repeats 1
% NFF Book 2016

